src/assets/icons/bus.svg

<svg xmlns="http://www.w3.org/2000/svg" viewBox="0 0 32 32"><path d="M25.85 1l1 6H30v7h-2V9h-1v22h-4.78l-1-4H10.78l-1 4H5V9H4v5H2V7h3.15l1-6zM8.72 27H7v2h1.22zM25 27h-1.72l.5 2H25zm0-7H7v5h18zM9.5 21A1.5 1.5 0 118 22.5 1.5 1.5 0 019.5 21zm13 0a1.5 1.5 0 11-1.5 1.5 1.5 1.5 0 011.5-1.5zM25 9H7v9h18zm-.85-6H7.85l-.67 4h17.64z" fill-rule="evenodd"/></svg>

<svg xmlns="http://www.w3.org/2000/svg" width="32" height="32" viewBox="0 0 32 32"><defs><style>.cls-1{fill-rule:evenodd;}</style></defs><g id="bus"><path id="Combined-Shape" class="cls-1" d="M25.85,1l1,6H30v7H28V9H27V31H22.22l-1-4H10.78l-1,4H5V9H4v5H2V7H5.15l1-6ZM8.72,27H7v2H8.22ZM25,27H23.28l.5,2H25Zm0-7H7v5H25ZM9.5,21A1.5,1.5,0,1,1,8,22.5,1.5,1.5,0,0,1,9.5,21Zm13,0A1.5,1.5,0,1,1,21,22.5,1.5,1.5,0,0,1,22.5,21ZM25,9H7v9H25Zm-.85-6H7.85L7.18,7H24.82Z"/></g></svg>
